X: 40100
T: Tich's
R: reel
M: 4/4
K: Gmajor
|:c|BcdB c2BA|Gfgf e2dc|BcdB GABG|FAAB A2dc|
BcdB c2BA|Gfgf e2dc|BcdB cAFA|AGGF G2G:|
|:g|fgaf g2fe|dcAc BGGg|fgaf gedB|cAA^G A2dc|
BcdB cdeg|fgaf g2dc|BcdB cAFA|AGGF G2G:|

